templates/main/source/images/logo-raif.svg

<?xml version="1.0" encoding="utf-8"?>
<svg width="184px" height="40px" viewBox="0 0 184 40" version="1.1" xmlns:xlink="http://www.w3.org/1999/xlink" xmlns="http://www.w3.org/2000/svg">
  <desc>Created with Lunacy</desc>
  <g id="logo-raif">
    <path d="M0.628571 0L0.628571 15.9429L4.68571 15.9429L4.68571 10.5143L7.02857 10.5143C11.3143 10.5143 12.5714 7.42857 12.5714 5.25714C12.5714 3.08571 11.3714 0 7.02857 0L0.628571 0ZM46.9143 16.1143L46.9143 20.5714L50.6857 20.5714L50.6857 16.0571C52.9714 16.0571 56.6857 15.1429 56.6857 10.4571C56.6857 5.82857 52.9714 4.91429 50.6857 4.91429L50.6857 0.228571L46.9143 0.228571L46.9143 4.97143C44.6286 4.91429 40.9143 5.88571 40.9143 10.5143C40.9143 15.2 44.6286 16.1143 46.9143 16.1143ZM64 20.5714L64 16.1143C61.7143 16.1143 58 15.2 58 10.5143C58 5.88571 61.7143 4.91429 64 4.97143L64 0.228571L67.7714 0.228571L67.7714 4.91429C70.0571 4.91429 73.7714 5.82857 73.7714 10.4571C73.7714 15.1429 70.0571 16.0571 67.7714 16.0571L67.7714 20.5714L64 20.5714ZM33.8286 3.71429C35.5429 3.71429 37.3143 3.02857 38.1143 1.2L35.6571 0.285714C35.3714 1.54286 34.2857 1.6 33.8286 1.6C33.3714 1.6 32.3429 1.54286 32 0.285714L29.5429 1.2C30.3429 3.02857 32.1143 3.71429 33.8286 3.71429ZM95.3714 3.71429C97.0857 3.71429 98.8571 3.02857 99.6572 1.2L97.2 0.285714C96.9143 1.54286 95.8286 1.6 95.3714 1.6C94.9143 1.6 93.8857 1.54286 93.6 0.285714L91.1429 1.2C91.8286 3.02857 93.6572 3.71429 95.3714 3.71429ZM4.74286 3.42857L4.74286 7.02857L6.11429 7.02857C8 7.02857 8.17143 5.88571 8.17143 5.2C8.17143 4.45714 7.94286 3.42857 6.11429 3.42857L4.74286 3.42857ZM25.5429 5.08571L25.5429 15.8857L21.7714 15.8857L21.7714 14.6857L21.7143 14.6857C21.0286 15.7714 19.7143 16.2286 18.5143 16.2286C15.3714 16.2286 13.1429 13.5429 13.1429 10.4571C13.1429 7.37143 15.3143 4.68571 18.5143 4.68571C19.7143 4.68571 21.0286 5.14286 21.8286 6.11429L21.8286 5.08571L25.5429 5.08571ZM87.0857 5.08571L87.0857 15.8857L83.3143 15.8857L83.3143 14.6857L83.2571 14.6857C82.5714 15.7714 81.2571 16.2286 80.0571 16.2286C76.9143 16.2286 74.6857 13.5429 74.6857 10.4571C74.6857 7.37143 76.8571 4.68571 80.0571 4.68571C81.2571 4.68571 82.5714 5.14286 83.3714 6.11429L83.3714 5.08571L87.0857 5.08571ZM106.343 7.25714C105.429 7.25714 104.343 7.65714 103.543 8.17143L102.571 5.82857C103.714 5.2 105.429 4.74286 106.971 4.74286C108.571 4.74286 111.257 5.25714 111.257 7.77143C111.257 8.91429 110.686 9.88571 109.714 10.2857C111.2 10.6857 111.886 11.8286 111.886 12.9714C111.886 13.7714 111.371 16.2857 107.029 16.2857C106.114 16.2857 104.229 16.1714 102.171 14.9714L103.143 12.4C104.229 13.0857 105.086 13.4286 106.4 13.4286C107.714 13.4286 107.943 12.7429 107.943 12.4C107.943 11.5429 106.914 11.4857 106.4 11.4857L104.743 11.4857L104.743 9.14286L106.629 9.14286C106.971 9.14286 107.886 9.14286 107.886 8.22857C107.886 7.31429 106.8 7.25714 106.343 7.25714ZM124.686 10.9714L124.686 11.3714L116.743 11.3714C116.743 12.9143 117.543 13.7714 119.086 13.7714C119.886 13.7714 120.457 13.4857 120.914 12.8L124.571 12.8C123.943 15.3714 121.6 16.5143 119.143 16.5143C115.6 16.5143 112.971 14.5143 112.971 10.7429C112.971 7.14286 115.429 4.97143 118.857 4.97143C122.571 4.97143 124.686 7.25714 124.686 10.9714ZM27.8857 15.8857L27.8857 5.08571L31.6571 5.08571L31.6571 10.8571L35.4286 5.08571L39.0857 5.08571L39.0857 15.8857L35.3143 15.8857L35.3143 9.94286L31.5429 15.8857L27.8857 15.8857ZM89.4286 15.8857L89.4286 5.08571L93.2571 5.08571L93.2571 10.8571L97.0286 5.08571L100.686 5.08571L100.686 15.8857L96.9143 15.8857L96.9143 9.94286L93.1429 15.8857L89.4286 15.8857ZM126.571 15.9429L130.343 15.9429L130.343 11.6L133.829 11.6L133.829 15.9429L137.6 15.9429L137.6 5.08571L133.829 5.08571L133.829 8.91429L130.343 8.91429L130.343 5.08571L126.571 5.08571L126.571 15.9429ZM121.2 9.14286L116.8 9.14286C117.029 8.05714 117.943 7.42857 119.029 7.42857C120.057 7.42857 121.029 8.11429 121.2 9.14286ZM47.2 7.6L47.2 13.6C45.8857 13.6 44.5714 12.6286 44.6286 10.6286C44.6286 8.51429 45.9429 7.6 47.2 7.6ZM50.5143 7.6L50.5143 13.6C51.7714 13.6 53.0857 12.6857 53.0857 10.6286C53.0857 8.51429 51.7714 7.6 50.5143 7.6ZM64.2286 13.6L64.2286 7.6C62.9714 7.6 61.6571 8.51429 61.6571 10.6286C61.6571 12.6286 62.9714 13.6 64.2286 13.6ZM67.6 13.6L67.6 7.6C68.8571 7.6 70.1714 8.51429 70.1714 10.6286C70.1714 12.6857 68.8571 13.6 67.6 13.6ZM16.9714 10.5143C16.9714 9.2 17.8857 8.05714 19.4286 8.05714C20.9714 8.05714 21.8857 9.2 21.8857 10.5143C21.8857 11.8286 20.9714 12.9143 19.4286 12.9143C17.8857 12.9143 16.9714 11.8857 16.9714 10.5143ZM78.5143 10.5143C78.5143 9.2 79.4286 8.05714 80.9714 8.05714C82.5143 8.05714 83.4286 9.2 83.4286 10.5143C83.4286 11.8286 82.5143 12.9143 80.9714 12.9143C79.4286 12.9143 78.5143 11.8857 78.5143 10.5143ZM12.2286 37.8857C13.0286 37.1429 13.3714 36.0571 13.5429 34.9714C13.8286 33.4857 13.3143 32.2857 12.2857 31.4857C11.0286 30.4 9.25714 30.2286 7.82857 30.2286L5.94286 30.2286L6.45714 27.0286L13.0286 27.0286L13.5429 23.8857L2.68571 23.8857L0 39.7714L6.34286 39.7714C7.94286 39.7143 10.5143 39.6 12.2286 37.8857ZM24.9714 37.0286L18.9714 37.0286L17.3714 39.7714L12.7429 39.7714L21.8286 23.8857L26.5714 23.8857L30.2286 39.7714L25.6 39.7714L24.9714 37.0286ZM36.7429 29.8286L37.7143 23.8857L33.4857 23.8857L30.9143 39.7714L35.1429 39.7714L36.2286 32.9143L42 32.9143L40.9143 39.7714L45.1429 39.7714L47.7143 23.8857L43.4857 23.8857L42.5143 29.8286L36.7429 29.8286ZM54.5143 23.8857L50.1143 23.8857L47.4857 39.7714L51.8286 39.7714L52.9714 32.8571L53.0286 32.8571L57.4857 39.7714L63.1429 39.7714L57.2571 31.4286L65.1429 23.8857L59.7714 23.8857L53.4286 30.4571L53.3714 30.4571L54.5143 23.8857ZM23.4286 28.7429L24.3429 33.8286L20.7429 33.8286L23.3714 28.7429L23.4286 28.7429ZM5.54286 33.2L4.97143 36.5714L6.05714 36.5714C8.57143 36.5714 9.02857 35.8857 9.2 34.9714C9.37143 33.9429 9.14286 33.2 6.68571 33.2L5.54286 33.2Z" transform="translate(45.76953 0)" id="Shape" fill="#000000" fill-rule="evenodd" stroke="none" />
    <g id="Group">
      <path d="M0 0L37.1429 0L37.1429 37.1429L0 37.1429L0 0Z" transform="translate(1.3142858 1.3142858)" id="Rectangle" fill="#FAEB00" stroke="none" />
      <path d="M39.7714 39.7714L0 39.7714L0 0L39.7714 0L39.7714 39.7714ZM38.4571 1.31429L1.31429 1.31429L1.31429 38.4571L38.4571 38.4571L38.4571 1.31429Z" id="Shape" fill="#000000" fill-rule="evenodd" stroke="none" />
      <path d="M17.2571 20.5725L5.82857 32.001L1.31429 27.4868L12.7429 16.0582L10.3429 13.6582L10.3429 8.97247L8.68571 7.31533L8.68571 11.4296L7.25714 12.8582L1.42857 7.08676L0 8.51533C0 7.42961 0.228571 4.28676 2.85714 1.71533C5.71429 -1.02753 8.8 0.229615 9.88571 1.25819L15.7143 7.02961L14.2286 8.51533L17.2571 11.5439L20.2857 8.51533L18.8 7.02961L24.6286 1.20104C25.7143 0.172472 28.8 -1.08467 31.6571 1.65819C34.2857 4.28676 34.5143 7.37247 34.5143 8.45819L33.0857 7.02961L27.2571 12.8582L25.8286 11.4296L25.8286 7.31533L24.1714 8.97247L24.1714 13.6582L21.7714 16.0582L33.2 27.4868L28.6857 32.001L17.2571 20.5725Z" transform="translate(2.6285715 3.8275282)" id="Path" fill="#000000" stroke="none" />
    </g>
  </g>
</svg>

<svg width="184" height="40" viewBox="0 0 184 40" xmlns:xlink="http://www.w3.org/1999/xlink" xmlns="http://www.w3.org/2000/svg"><g id="logo-raif" stroke="none"><path d="M.629 0v15.943h4.057v-5.429h2.343c4.285 0 5.542-3.085 5.542-5.257C12.571 3.086 11.371 0 7.03 0H.63zm46.285 16.114v4.457h3.772v-4.514c2.285 0 6-.914 6-5.6 0-4.628-3.715-5.543-6-5.543V.23h-3.772v4.74c-2.285-.057-6 .915-6 5.543 0 4.686 3.715 5.6 6 5.6zM64 20.571v-4.457c-2.286 0-6-.914-6-5.6 0-4.628 3.714-5.6 6-5.543V.23h3.771v4.685c2.286 0 6 .915 6 5.543 0 4.686-3.714 5.6-6 5.6v4.514H64zM33.829 3.714c1.714 0 3.485-.685 4.285-2.514L35.657.286C35.371 1.543 34.286 1.6 33.83 1.6c-.458 0-1.486-.057-1.829-1.314l-2.457.914c.8 1.829 2.571 2.514 4.286 2.514zm61.542 0c1.715 0 3.486-.685 4.286-2.514L97.2.286C96.914 1.543 95.829 1.6 95.371 1.6c-.457 0-1.485-.057-1.771-1.314l-2.457.914c.686 1.829 2.514 2.514 4.228 2.514zM4.743 3.43v3.6h1.371C8 7.029 8.171 5.886 8.171 5.2c0-.743-.228-1.771-2.057-1.771H4.743zm20.8 1.657v10.8H21.77v-1.2h-.057c-.685 1.085-2 1.543-3.2 1.543-3.143 0-5.371-2.686-5.371-5.772 0-3.086 2.171-5.771 5.371-5.771 1.2 0 2.515.457 3.315 1.428V5.086h3.714zm61.543 0v10.8h-3.772v-1.2h-.057c-.686 1.085-2 1.543-3.2 1.543-3.143 0-5.371-2.686-5.371-5.772 0-3.086 2.171-5.771 5.371-5.771 1.2 0 2.514.457 3.314 1.428V5.086h3.715zm19.257 2.171c-.914 0-2 .4-2.8.914l-.972-2.342c1.143-.629 2.858-1.086 4.4-1.086 1.6 0 4.286.514 4.286 3.028 0 1.143-.571 2.115-1.543 2.515 1.486.4 2.172 1.543 2.172 2.685 0 .8-.515 3.315-4.857 3.315a9.56 9.56 0 01-4.858-1.315l.972-2.571c1.086.686 1.943 1.029 3.257 1.029s1.543-.686 1.543-1.029c0-.857-1.029-.914-1.543-.914h-1.657V9.143h1.886c.342 0 1.257 0 1.257-.914 0-.915-1.086-.972-1.543-.972zm18.343 3.714v.4h-7.943c0 1.543.8 2.4 2.343 2.4.8 0 1.371-.285 1.828-.971h3.657c-.628 2.571-2.971 3.714-5.428 3.714-3.543 0-6.172-2-6.172-5.771 0-3.6 2.458-5.772 5.886-5.772 3.714 0 5.829 2.286 5.829 6zm-96.8 4.915v-10.8h3.771v5.771l3.772-5.771h3.657v10.8h-3.772V9.943l-3.771 5.943h-3.657zm61.543 0v-10.8h3.828v5.771l3.772-5.771h3.657v10.8h-3.772V9.943l-3.771 5.943h-3.714zm37.142.057h3.772V11.6h3.486v4.343h3.771V5.086h-3.771v3.828h-3.486V5.086h-3.772v10.857zm-5.371-6.8h-4.4c.229-1.086 1.143-1.714 2.229-1.714 1.028 0 2 .685 2.171 1.714zM47.2 7.6v6c-1.314 0-2.629-.971-2.571-2.971 0-2.115 1.314-3.029 2.571-3.029zm3.314 0v6c1.257 0 2.572-.914 2.572-2.971 0-2.115-1.315-3.029-2.572-3.029zm13.715 6v-6c-1.258 0-2.572.914-2.572 3.029 0 2 1.314 2.971 2.572 2.971zm3.371 0v-6c1.257 0 2.571.914 2.571 3.029 0 2.057-1.314 2.971-2.571 2.971zm-50.629-3.086c0-1.314.915-2.457 2.458-2.457 1.542 0 2.457 1.143 2.457 2.457 0 1.315-.915 2.4-2.457 2.4-1.543 0-2.458-1.028-2.458-2.4zm61.543 0c0-1.314.915-2.457 2.457-2.457 1.543 0 2.458 1.143 2.458 2.457 0 1.315-.915 2.4-2.458 2.4-1.542 0-2.457-1.028-2.457-2.4zM12.23 37.886c.8-.743 1.142-1.829 1.314-2.915.286-1.485-.229-2.685-1.257-3.485-1.257-1.086-3.029-1.257-4.457-1.257H5.943l.514-3.2h6.572l.514-3.143H2.686L0 39.77h6.343c1.6-.057 4.171-.171 5.886-1.885zm12.742-.857h-6l-1.6 2.742h-4.628l9.086-15.885h4.742L30.23 39.77H25.6l-.629-2.742zm11.772-7.2l.971-5.943h-4.228L30.914 39.77h4.229l1.086-6.857H42l-1.086 6.857h4.229l2.571-15.885h-4.228l-.972 5.943h-5.771zm17.771-5.943h-4.4L47.486 39.77h4.343l1.142-6.914h.058l4.457 6.914h5.657l-5.886-8.342 7.886-7.543H59.77l-6.342 6.571h-.058l1.143-6.571zM23.43 28.743l.914 5.086h-3.6l2.628-5.086h.058zM5.543 33.2l-.572 3.371h1.086c2.514 0 2.972-.685 3.143-1.6.171-1.028-.057-1.771-2.514-1.771H5.543z" transform="translate(45.77)" id="Shape" fill="#000" fill-rule="evenodd"/><g id="Group"><path d="M0 0h37.143v37.143H0V0z" transform="translate(1.314 1.314)" id="Rectangle" fill="#FAEB00"/><path d="M39.771 39.771H0V0h39.771v39.771zM38.457 1.314H1.314v37.143h37.143V1.314z" id="Shape" fill="#000" fill-rule="evenodd"/><path d="M17.257 20.573L5.83 32l-4.515-4.514 11.429-11.429-2.4-2.4V8.972L8.686 7.315v4.115l-1.429 1.428L1.43 7.087 0 8.515c0-1.085.229-4.228 2.857-6.8C5.714-1.028 8.8.23 9.886 1.258l5.828 5.772-1.485 1.485 3.028 3.029 3.029-3.029L18.8 7.03l5.829-5.83c1.085-1.029 4.171-2.286 7.028.457a9.707 9.707 0 012.857 6.8L33.086 7.03l-5.829 5.828-1.428-1.428V7.315L24.17 8.972v4.686l-2.4 2.4L33.2 27.487 28.686 32 17.257 20.573z" transform="translate(2.629 3.828)" id="Path" fill="#000"/></g></g></svg>
